src/lib/packages/icons/src/assets/line/file-copy.svg

<svg width="24" height="24" viewBox="0 0 24 24" fill="none" xmlns="http://www.w3.org/2000/svg">
<path d="M20.53 7.47L15.53 2.47C15.389 2.329 15.199 2.25 15 2.25H10.3999C8.3979 2.25 7.25 3.39799 7.25 5.39999V6.25H6.3999C4.3979 6.25 3.25 7.39799 3.25 9.39999V19.6C3.25 21.601 4.3979 22.75 6.3999 22.75H13.5991C15.6011 22.75 16.749 21.602 16.749 19.6V18.75H17.5991C19.6011 18.75 20.749 17.602 20.749 15.6V8C20.75 7.801 20.671 7.61 20.53 7.47ZM15.75 4.811L18.189 7.25H17.5C16.24 7.25 15.75 6.759 15.75 5.5V4.811ZM15.25 19.6C15.25 20.787 14.7871 21.25 13.6001 21.25H6.40088C5.21288 21.25 4.75098 20.787 4.75098 19.6V9.39999C4.75098 8.21299 5.21388 7.75 6.40088 7.75H7.25098V15.6C7.25098 17.601 8.39888 18.75 10.4009 18.75H15.251V19.6H15.25ZM17.6001 17.25H10.4009C9.21288 17.25 8.75098 16.787 8.75098 15.6V5.39999C8.75098 4.21299 9.21388 3.75 10.4009 3.75H14.251V5.5C14.251 7.596 15.405 8.75 17.501 8.75H19.251V15.6C19.25 16.787 18.7871 17.25 17.6001 17.25Z" fill="currentColor"/>
</svg>

<svg xmlns="http://www.w3.org/2000/svg" width="24" height="24" fill="none"><path fill="currentColor" d="m20.53 7.47-5-5a.749.749 0 0 0-.53-.22h-4.6c-2.002 0-3.15 1.148-3.15 3.15v.85H6.4c-2.002 0-3.15 1.148-3.15 3.15v10.2c0 2.001 1.148 3.15 3.15 3.15h7.2c2.001 0 3.149-1.148 3.149-3.15v-.85h.85c2.002 0 3.15-1.148 3.15-3.15V8a.742.742 0 0 0-.219-.53Zm-4.78-2.659 2.439 2.439H17.5c-1.26 0-1.75-.491-1.75-1.75v-.689Zm-.5 14.789c0 1.187-.463 1.65-1.65 1.65H6.4c-1.187 0-1.649-.463-1.649-1.65V9.4c0-1.187.463-1.65 1.65-1.65h.85v7.85c0 2.001 1.148 3.15 3.15 3.15h4.85v.85h-.001Zm2.35-2.35h-7.2c-1.187 0-1.649-.463-1.649-1.65V5.4c0-1.187.463-1.65 1.65-1.65h3.85V5.5c0 2.096 1.154 3.25 3.25 3.25h1.75v6.85c-.001 1.187-.464 1.65-1.65 1.65Z"/></svg>
